X:1     %Music
T:Winter
B:Singing Together, Autumn 1960, BBC Publications
F:http://www.folkinfo.org/songs
M:4/4     %Meter
L:1/8     %
K:F
c3 B A2 G2 |F2 (FG) A2 F2 |(GA) (BG) A3 G |F2 E2 F4 |
w:Now the joy-ful bells a--ring-ing, All_ ye_ moun-tains, praise the Lord, 
c3 B A2 G2 |F2 (FG) A2 F2 |(GA) (BG) A3 G |F2 E2 F4 |
w:Lift our hearts like birds a--wing-ing All_ ye_ moun-tains, praise the Lord. 
G3 A B2 G2 |A3 B c2 G2 |A2 (AB) c2 f2 |e2 d2 c4 |
w:Now our fes-tal sea-son, bring-ing Kins-men_ all, to bide and board, 
c3 B A2 G2 |F2 (FG) A2 F2 |(GA) (BG) A3 G |F2 E2 F4 |]
w:Sets our cheer-y voi-ces_ sing-ing All_ ye_ moun-tains, praise the Lord. 